X: 15
T: Music In The Glen
Z: RobSheldrick
S: https://thesession.org/tunes/303#setting52256
R: reel
M: 4/4
L: 1/8
K: Amaj
|:ABcA FAED|CEAc BABc|defd ceAc|dBcA BAFG|
ABcA FAED|CEAc BABc|defg agaf|edcB A4:|
|:c/B/A eA fAeA|c/c/AeA dBGB|c/B/A A/A/A fec(a|a)ecA BAFA|
cAeA fece|ae ga bgeg|a2 ga faec|d2cd BAFA:|

%-------------------- TUNE SEPARATOR --------------------%

